X:6
T:Triumph. WHG.006
R:country dance
S:W.H.Giles MS,Bampton,Oxfordshire,1839p7
O:England
H:donated by Mrs W.R.Kettlewell to VWML,Apr 1927.
A:Bampton, Oxfordshire
N:In the C music, the last 4 bars are clearly marked
N:”1st Time” and “2 Time”. Oddly, the repeat mark is
N:at the end of the pair of second-time bars.
N:There is a leading g2 in the MS.
Z:PJHeadford – VMP 2009
M:C
L:1/8
Q:1/4=140
K:G
|:dBGB cAFA|G gfe d2cd|dBGB cAFA|G2B2 G4:|!
|:A2c2 B2d2|A2c2 B2d2|A2c2 B2e2|dcBA G4:|\
|:B2Bc dcBA|!
B2Bc dcBA|1B2Bc defg|dcBA G4:|2\
B2Bc defg|dBcA G4|]

